X:185
T:The Rolling Wave
T:The Humours of Trim
R:Double jig
M:6/8
L:1/8
K:D
|FEF DED|D2d cAG|FEF DED|~A2F GFE|
|FEF DED|D2d cAG|~F3 GFG|~A2F GFE:|
|:D2d cAd|cAd cAG|F2d cAG|~F3 GFE|
|D2d cde|fed cAG|~F3 GFG|~A2F GFE:|

